X:990
T:Boot dance
R:Other
P:Played with a lilt
B:Kerr's First p30
S:Kerr's First p30
Z:Transcription, arrangement, chords:Mike Long
M:C|
L:1/8
K:C
"Am"A2-AB cBAc|"E"BA^GB "Am"A2A2|"Am"c2-cd edce|"E"dcBd "Am"c2c2|\
"Am"A2-AB cBAc|
"Bb"_B2-Bd fdBd|"Am"ecAc edcB|"E"Acea "Am"A2z2:|\
|:"Am"A2aA gAfA|eAdA cAcd|
ecAc edcB|"G"cBAc "E"BEFE|\
"Am"A2aA gAfA|eAdA cAcd|ecAc edcB|"E"Acea "Am"A2z2:|
